pix_core/i/emojicategorytravelplaces.svg

<svg preserveAspectRatio="xMinYMid meet" viewBox="0 0 576 512" xmlns="http://www.w3.org/2000/svg"><path d="m482.3 192c34.2 0 93.7 29 93.7 64 0 36-59.5 64-93.7 64h-116.6l-100.5 175.9c-5.7 10-16.3 16.1-27.8 16.1h-56.2c-10.6 0-18.3-10.2-15.4-20.4l49-171.6h-102.8l-43.2 57.6c-3 4-7.8 6.4-12.8 6.4h-42c-7.8 0-14-6.3-14-14 0-1.3.2-2.6.5-3.9l31.5-110.1-31.5-110.1c-.4-1.3-.5-2.6-.5-3.9 0-7.8 6.3-14 14-14h42c5 0 9.8 2.4 12.8 6.4l43.2 57.6h102.9l-49-171.6c-3-10.2 4.7-20.4 15.3-20.4h56.2c11.5 0 22.1 6.2 27.8 16.1l100.5 175.9z" fill="#fff"/></svg>

<svg xmlns="http://www.w3.org/2000/svg" viewBox="0 0 576 512" preserveAspectRatio="xMinYMid meet"><!--!Font Awesome Free 6.5.2 by @fontawesome - https://fontawesome.com License - https://fontawesome.com/license/free Copyright 2024 Fonticons, Inc.--><path fill="#fff" d="M482.3 192c34.2 0 93.7 29 93.7 64c0 36-59.5 64-93.7 64l-116.6 0L265.2 495.9c-5.7 10-16.3 16.1-27.8 16.1l-56.2 0c-10.6 0-18.3-10.2-15.4-20.4l49-171.6L112 320 68.8 377.6c-3 4-7.8 6.4-12.8 6.4l-42 0c-7.8 0-14-6.3-14-14c0-1.3 .2-2.6 .5-3.9L32 256 .5 145.9c-.4-1.3-.5-2.6-.5-3.9c0-7.8 6.3-14 14-14l42 0c5 0 9.8 2.4 12.8 6.4L112 192l102.9 0-49-171.6C162.9 10.2 170.6 0 181.2 0l56.2 0c11.5 0 22.1 6.2 27.8 16.1L365.7 192l116.6 0z"/></svg>
